svgs/sharp-solid/tickets-simple.svg

<svg xmlns="http://www.w3.org/2000/svg" viewBox="0 0 640 512"><!--! Font Awesome Pro 6.5.2 by @fontawesome - https://fontawesome.com License - https://fontawesome.com/license (Commercial License) Copyright 2024 Fonticons, Inc. --><path d="M640 32H96V160c26.5 0 48 21.5 48 48s-21.5 48-48 48V384H640V256c-26.5 0-48-21.5-48-48s21.5-48 48-48V32zM48 120V96H0v24V456v24H24 520h24V432H520 48V120z"/></svg>

<svg xmlns="http://www.w3.org/2000/svg" viewBox="0 0 640 512"><!--! Font Awesome Pro 6.6.0 by @fontawesome - https://fontawesome.com License - https://fontawesome.com/license (Commercial License) Copyright 2024 Fonticons, Inc. --><path d="M640 32L96 32l0 128c26.5 0 48 21.5 48 48s-21.5 48-48 48l0 128 544 0 0-128c-26.5 0-48-21.5-48-48s21.5-48 48-48l0-128zM48 120l0-24L0 96l0 24L0 456l0 24 24 0 496 0 24 0 0-48-24 0L48 432l0-312z"/></svg>
